X:276
T: Wenn ich des Nachts vor dem Feuerlein steh (3-78), S. 217
N: P1051
O: Lothringen
S: PINCK, Louis: Verklingende Weisen, Bd3, Metz 1933]
R: Liebe, Verfhrung mithilfe von Wein]
M: 3/4
L: 1/16
K: G
D4 | G8B4 | d6d2d4 | d4c4B4 | c8
c4 | B8A4 | B8B2B2 | A8G4 | A8
D4 | G8B4 | de4-e3d4 | d4c4B4 | ce4-e3
d4 | B8B4 | B6B2B2BB | B4A4G4 | A12 |
d12 | G8G4 | A4d4G4 | A12 | G8

@@@ Tune index: 7826
